X:404
M:C|
L:1/8
K:B_
d|f2 d>b g2 E>e|c2 A>a f2 D>d|B2 G>g e>dc>B|A<cF<e dB~Bf|
dBba gfed|cAag fedc|BGgf edcB|Afec dB~B||

